X:170
T:The Maid Behind The Bar
R:reel
M:4/4
L:1/8
K:Dmaj
|:FAAB AFED|FAAB ABde|fBBA Bcde|fBBA BcdA|
FAAB AFED|FAAB ABde|fBBA BcdB|AFEF D4:|
|:faab afde|fdad fd d2|efga beef|gebe gfeg|
fgaf bfaf|defd e2 de|fBBA BcdB|AFEF D4:|

